F[ERK1
CUT[VOR MEINES HERZLIEBCHENS FENSTER]
REG[Europa, Mitteleuropa, Deutschland, Niederrhein]
KEY[E0409  16  G 6/8]
MEL[-5_  1_1_1_2_1_2_  3__.2__
    34  5_4_3_2_1_2_  3__0__.
    3_  5_4_3_2_1_2_  1__-6_-5__-5_  3__1_2__
    34  5_.43_2_1_2_  1___0_ //] >>
FCT[Liebes - Lied, Abschied]
